X: 2886
T: Barnacle, The
R: mazurka
M: 3/4
K: Gmajor
GE|:D2DB, DE|G2G2GB|A2A2AB|dB AB GE|
D2DB, DE|G2G2GB|A2A2BA|G2G2GE:|
DG BG BG|DG BG BG|DF AF AF|DF AF AF|
DG BG BG|DG BG BG|Bd dB AB|G2G2(3DEG|
B2B2(3ABA|G2G2FG|E2ED B,D|E2ED B,D|
B2B2Bc|d2d2(3BdB|A2A2BA|G2G2|

